X:1
T:title
M:4/4
Q:120
L:1/8
R:Reel
K:C
 ^c ^d'3 ^c'4 |  _c'2 ^D2 _G ^f3 | c'3CdF _b'2 | e2 _F2 _F4 |  ^b4 ^f'2 ^f2 |  ^gc'3 _B4 |  _d' ^f'2 _c4 _C |  ^b ^Dd'f' ^g'2 _c' ^F | 